X: 1
T: Charlie Hardie
M: 4/4
L: 1/8
R: reel
K: Emaj
BeGe BeGe|cfAf cfAf|dgBg dgBg|gbaf geec|
BeGe BeGe|cfAf cfAf|dgBg dgBg|abc'd' e'eea|
gbef gabg|fbBc defa|gbef gabe|abc'd' e'eea|
gbef gabg|fbBc defa|gbag fedc|BAGF EEEc|
